!!!!SEGMENT: sonata12-3.krn
!!!COA: Haydn, Franz Joseph
!!!CDT: 1732/03/31-1809/05/31
!!!CNT: Austrian
!!!OTL: Sonata No. 12 in A major
!!!SCT: Hob. XVI:12
!!!OMV: 3
!!!OMD: Finale.: Allegretto.
!!!ODT: ~1750-1755
**kern	**kern	**dynam
*staff2	*staff1	*staff1/2
*Ipiano	*Ipiano	*Ipiano
*>[A,A,B,B]	*>[A,A,B,B]	*>[A,A,B,B]
*>norep[A,B]	*>norep[A,B]	*>norep[A,B]
*>A	*>A	*>A
*clefF4	*clefG2	*clefG2
*k[f#c#g#]	*k[f#c#g#]	*k[f#c#g#]
*A:	*A:	*A:
*M3/8	*M3/8	*M3/8
*MM112	*MM112	*MM112
=1-	=1-	=1-
!	!	!LO:DY:rj
16ALL	8asSSs	mf
16e	.	.
16c#	8r	.
16e	.	.
16A	8r	.
16eJJ	.	.
=2	=2	=2
16G#LL	8bsSSs	.
16e	.	.
16B	8r	.
16e	.	.
16G#	8r	.
16eJJ	.	.
=3	=3	=3
16ALL	8cc#sSsS	.
16e	.	.
16c#	8r	.
16e	.	.
16A	8r	.
16eJJ	.	.
=4	=4	=4
16G#LL	8ddsSSs	.
16e	.	.
16B	8r	.
16e	.	.
16G#	8r	.
16eJJ	.	.
=5	=5	=5
.	(16qqddP	.
4A	(8cc#pL)	.
.	16bL	.
.	16a	.
8r	16g#	.
.	16f#JJ	.
=6	=6	=6
(8E' 8c#'L	4e	.
8E' 8c#')	.	.
(8E 8BJ	8dT	.
.	32qc#LLL	.
.	32qdJJJ	.
=7	=7	=7
4A)	4c#)	.
8r	8r	.
*clefG2	*	*
=8	=8	=8
16dLL	(4ff#	p
16a	.	.
16f#	.	.
16a	.	.
16d	8gg#	.
16aJJ	.	.
!!LO:LB:g=z
=9	=9	=9
16c#LL	8aaL	.
16a	.	.
16e	8eeJ)	.
16a	.	.
16c#	8r	.
16aJJ	.	.
=10	=10	=10
16dLL	(4ff#	<
16a	.	.
16f#	.	.
16a	.	.
16d	8gg#	.
16aJJ	.	.
=11	=11	=11
16c#LL	8aaL	[
16a	.	.
16e	8eeJ)	.
16a	.	.
16c#	8r	.
16aJJ	.	.
=12	=12	=12
8B'L	(16eeLL	.
.	16dd)	.
(8g#	(16bb	.
.	16dd)	.
8aJ)	(16dd	.
.	16cc#JJ)	.
=13	=13	=13
(4d	(16ff#LL	>
.	16ee	.
.	16dd	.
.	16cc#	.
8d#	16b	.
.	16aJJ)	.
=14	=14	=14
.	(8aqqP	.
8e')	4g#p)	]
*clefF4	*	*
8E'	.	.
8r	8r	.
=15	=15	=15
8r	(16bbLL	mf
.	16gg#	.
8r	16ee	.
.	16b	.
*clefG2	*	*
8a`	16dd#	.
.	16bJJ	.
=16	=16	=16
8g#`L	16eeLL	.
.	16b	.
8f#`	16ff#	.
.	16b	.
8e`J	16gg#	.
.	16bJJ)	.
!!LO:LB:g=z
=17	=17	=17
8r	(16bbLL	p
.	16ggn	.
8r	16ee	.
.	16b	.
8a`	16dd#	.
.	16bJJ	.
=18	=18	=18
8gn`L	16eeLL	.
.	16b	.
8f#`	16ff#	.
.	16b	.
8e`J	16ggn	.
.	16bJJ)	.
=19	=19	=19
8r	(16bbLL	mf
.	16gg#X	.
8r	16ee	.
.	16b	.
8a`	16dd#	.
.	16bJJ	.
=20	=20	=20
8g#X`L	16eeLL	.
.	16b	.
8f#`	16ff#	.
.	16b	.
8e`J	16gg#	.
.	16bJJ)	.
=21	=21	=21
4.r	(16bbLL	.
.	16aa	.
.	16gg#	.
.	16ff#	.
.	16ee	.
.	16ddnJJ	.
*clefF4	*	*
=22	=22	=22
8A' (8e'L	(8cc#'L)	.
8A' 8e'	8cc#'	.
8A' 8e'J)	8cc#'J)	.
=23	=23	=23
4A 4e	(16cc#LL	.
.	16ee	.
.	16dd#	.
.	16cc#	.
8r	16b	.
.	16aJJ	.
=24	=24	=24
4BB 4E	16g#LL	.
.	16b	.
.	16a	.
.	16g#	.
8r	16f#	.
.	16eJJ	.
=25	=25	=25
8BB` 8D#`L	4.f#T	>
8BB` 8D#`	.	.
8BB` 8D#`J	.	]]
.	32eqLLL	.
.	32f#qJJJ	.
!!LO:LB:g=z
=26	=26	=26
8E`	8e`L)	.
8r	(16bL	p
.	16g#)	.
8BB`	(16a	.
.	16f#JJ)	.
=27	=27	=27
8E`	8e`L	.
8r	(16bL	.
.	16g#)	.
8BB`	(16a	.
.	16f#JJ)	.
=28	=28	=28
4E	4e	.
8r	8r	.
=29:|!|:	=29:|!|:	=29:|!|:
*>B	*>B	*>B
4.EE 4.E	8e`L	f
.	(16g#L	.
.	16e)	.
.	(16b	.
.	16g#JJ)	.
=30	=30	=30
4.EE 4.D#	8f#`L	.
.	(16aL	.
.	16f#)	.
.	(16cc#	.
.	16aJJ)	.
=31	=31	=31
4.EE 4.Dn	8g#`L<	.
.	(16bL	.
.	16g#)	.
.	(16ddn	.
.	16bJJ)	.
=32	=32	=32
4.EE 4.C#	8a`L	.
.	(16cc#L	.
.	16a)	.
.	(16ee	.
.	16cc#JJ)	.
=33	=33	=33
*^	*	*
(8G#L	4.E	(16bLL	>
.	.	16e	]
8B	.	16dd	.
.	.	16e	.
8AJ)	.	16cc#	.
.	.	16eJJ	.
!!LO:LB:g=z
=34	=34	=34	=34
(8G#L	4.E	16bLL	.
.	.	16e	.
8B	.	16dd	.
.	.	16e	.
8AJ)	.	16cc#	.
.	.	16eJJ)	.
*v	*v	*	*
=35	=35	=35
4E 4G#	4bM	.
8r	8r	.
=36	=36	=36
16ALL	8asSSs	mf
16e	.	.
16c#	8r	.
16e	.	.
16A	8r	.
16eJJ	.	.
=37	=37	=37
16G#LL	8bsSSs	.
16e	.	.
16B	8r	.
16e	.	.
16G#	8r	.
16eJJ	.	.
=38	=38	=38
16ALL	8cc#sSsS	.
16e	.	.
16c#	8r	.
16e	.	.
16A	8r	.
16eJJ	.	.
=39	=39	=39
16G#LL	8ddsSSs	.
16e	.	.
16B	8r	.
16e	.	.
16G#	8r	.
16eJJ	.	.
=40	=40	=40
.	(16ddqqP	.
4A	(8cc#LL)	.
.	16b	.
.	16a	.
8r	16g#	.
.	16f#JJ	.
=41	=41	=41
(8E' 8c#'L	4e	.
8E' 8c#')	.	.
(8E 8BJ	8dT	.
=42	=42	=42
4A)	8c#)	.
.	(32g#LLK	.
.	16.a)	.
8r	(32g#k	.
.	16.aJJ)	.
!!LO:LB:g=z
=43	=43	=43
(8E' 8c#'L	(4e	.
8E' 8c#')	.	.
(8E 8BJ	8dT	.
=44	=44	=44
4A)	4c#)	.
8r	8r	.
*clefG2	*	*
=45	=45	=45
16dLL	8ddsSSs	p
16a	.	.
16f#	8r	.
16a	.	.
16d	8r	.
16aJJ	.	.
=46	=46	=46
16c#LL	8eesSSS	.
16a	.	.
16e	8r	.
16a	.	.
16c#	8r	.
16aJJ	.	.
=47	=47	=47
16dLL	8ff#sSSS	.
16a	.	.
16f#	8r	.
16a	.	.
16d	8r	.
16aJJ	.	.
=48	=48	=48
4B	(16dddLL	.
.	16ccc#	.
.	16bb	.
.	16aa	.
8r	16gg#X	.
.	16ff#JJ	.
*clefF4	*	*
=49	=49	=49
8r	8ee')	.
8c# (8eL	8r	.
8B 8dJ	8r	.
=50	=50	=50
4A 4c#)	(16ccc#LL	<
.	16bb	.
.	16aa	.
.	16gg#	.
8r	16ff#	.
.	16eeJJ	.
=51	=51	=51
8r	8dd')	.
8B (8dL	8r	.
8A 8c#J	8r	.
!!LO:LB:g=z
=52	=52	=52
4G# 4B)	(16bbLL	.
.	16aa	.
.	16gg#	.
.	16ff#	.
8r	16ee	.
.	16ddJJ	.
=53	=53	=53
4AA 4A	16cc#LL	.
.	16ee	.
.	16dd	.
.	16cc#	.
8r	16b	.
.	16aJJ)	.
=54	=54	=54
4D	(16ff#LL	>
.	16ee	.
.	16dd	.
.	16cc#	.
8r	16b	.
.	16aJJ)	.
=55	=55	=55
.	(8aqqP	.
4EE 4E	4g#p)	]
8r	8r	.
=56	=56	=56
8r	(16eeLL	mf
.	16cc#	.
8r	16a	.
.	16e	.
8d`	16g#	.
.	16eJJ	.
=57	=57	=57
8c#`L	16aLL	.
.	16e	.
8B`	16b	.
.	16e	.
8A`J	16cc#	.
.	16eJJ)	.
=58	=58	=58
8r	(16eeLL	p
.	16ccn	.
8r	16a	.
.	16e	.
8d`	16g#	.
.	16eJJ	.
=59	=59	=59
8cn`L	16aLL	.
.	16e	.
8B`	16b	.
.	16e	.
8A`J	16ccn	.
.	16eJJ)	.
=60	=60	=60
8r	(16eeLL	mf
.	16cc#X	.
8r	16a	.
.	16e	.
8d`	16g#	.
.	16eJJ	.
!!LO:LB:g=z
=61	=61	=61
8c#X`L	16aLL	.
.	16e	.
8B`	16b	.
.	16e	.
8A`J	16cc#	.
.	16eJJ)	.
=62	=62	=62
4.r	(16eeLL	.
.	16dd	.
.	16cc#	.
.	16b	.
.	16a	.
.	16gnJJ	.
=63	=63	=63
8r	8f#')	.
8D' (8A'L	(8ff#'L	.
8D' 8A'J)	8ff#'J)	.
=64	=64	=64
4D 4A	(16ff#LL	.
.	16aa	.
.	16gg#	.
.	16ff#	.
8r	16ee	.
.	16ddJJ	.
=65	=65	=65
4E 4A	16cc#LL	.
.	16ee	.
.	16dd	.
.	16cc#	.
8r	16b	.
.	16aJJ	.
=66	=66	=66
8E` 8G#`L	4.bTT	.
8E` 8G#`	.	.
8E` 8G#`J	.	.
.	32qaLLL	.
.	32qbJJJ	.
=67	=67	=67
8A`	8a`L)	.
8r	(16eeL	p
.	16cc#)	.
8E`	(16dd	.
.	16bJJ)	.
=68	=68	=68
8AA`	8a`L	.
8r	(16eeL	.
.	16cc#)	.
8E`	(16dd	.
.	16bJJ)	.
=69	=69	=69
4AA	4a	.
8r	8r	.
==:|!	==:|!	==:|!
*-	*-	*-
!!!RDF**kern: > = above
!!!RDF**kern: < = below
!!!PPR: Universal Edition 1-4
!!!PTL: Haydn Piano Sonatas, Vol. 1, No. 5
!!!YOY: 1901
!!!ONB: Stich und Druck von Jos. Eberle & Co. Wien VII. Seidengasse 3-9
!!!ONM-ue: I:5.3
!!!YEC: 2021 Craig Stuart Sapp
!!!YEM: Licence: (CC BY-NC-SA 4.0) https://creativecommons.org/licenses/by-nc-sa/4.0
!!!YER: 2021
!!!ENC: Craig Stuart Sapp
!!!END: 2008/07/05
!!!EED: Craig Stuart Sapp
!!!EEV: 2021/01/31
!!!YEC: 2021 Craig Stuart Sapp
!!!URL: https://github.com/craigsapp/haydn-keyboard-sonatas
!!!URL-vhv: https://verovio.humdrum.org?file=haydn/sonatas/sonata12-3.krn
!!!URL-pdf: https://github.com/craigsapp/haydn-keyboard-sonatas/raw/master/reference-edition/sonata12-3.pdf
!!!title: @{OTL}, mvmt. @{OMV} (@{SCT}), UE @{ONM-ue}
